src/assets/channels/whatsapp.svg

<svg width="24" height="24" viewBox="0 0 24 24" fill="none" xmlns="http://www.w3.org/2000/svg">
<g clip-path="url(#clip0_1_9)">
<path d="M17.472 14.382C17.175 14.233 15.714 13.515 15.442 13.415C15.169 13.316 14.971 13.267 14.772 13.565C14.575 13.862 14.005 14.531 13.832 14.729C13.659 14.928 13.485 14.952 13.188 14.804C12.891 14.654 11.933 14.341 10.798 13.329C9.915 12.541 9.318 11.568 9.145 11.27C8.972 10.973 9.127 10.812 9.275 10.664C9.409 10.531 9.573 10.317 9.721 10.144C9.87 9.97 9.919 9.846 10.019 9.647C10.118 9.449 10.069 9.276 9.994 9.127C9.919 8.978 9.325 7.515 9.078 6.92C8.836 6.341 8.591 6.42 8.409 6.41C8.236 6.402 8.038 6.4 7.839 6.4C7.641 6.4 7.319 6.474 7.047 6.772C6.775 7.069 6.007 7.788 6.007 9.251C6.007 10.713 7.072 12.126 7.22 12.325C7.369 12.523 9.316 15.525 12.297 16.812C13.006 17.118 13.559 17.301 13.991 17.437C14.703 17.664 15.351 17.632 15.862 17.555C16.433 17.47 17.62 16.836 17.868 16.142C18.116 15.448 18.116 14.853 18.041 14.729C17.967 14.605 17.77 14.531 17.472 14.382ZM12.05 21.785H12.046C10.2758 21.7851 8.53808 21.3092 7.015 20.407L6.654 20.193L2.913 21.175L3.911 17.527L3.676 17.153C2.68644 15.5773 2.16294 13.7537 2.166 11.893C2.167 6.443 6.602 2.009 12.054 2.009C14.694 2.009 17.176 3.039 19.042 4.907C19.9627 5.82362 20.6924 6.91373 21.189 8.11424C21.6856 9.31476 21.9391 10.6018 21.935 11.901C21.932 17.351 17.498 21.785 12.05 21.785ZM20.463 3.488C19.3612 2.37892 18.0502 1.49954 16.6061 0.900799C15.1619 0.302063 13.6133 -0.00411821 12.05 -9.84121e-07C5.495 -9.84121e-07 0.159999 5.335 0.156999 11.892C0.156999 13.988 0.703999 16.034 1.745 17.837L0.0569992 24L6.362 22.346C8.10559 23.2959 10.0594 23.7937 12.045 23.794H12.05C18.604 23.794 23.94 18.459 23.943 11.901C23.9478 10.3383 23.6428 8.7901 23.0454 7.34603C22.4481 5.90197 21.5704 4.59067 20.463 3.488Z" fill="#25D366" style="fill:#25D366;fill:color(display-p3 0.1451 0.8275 0.4000);fill-opacity:1;"/>
</g>
<defs>
<clipPath id="clip0_1_9">
<rect width="24" height="24" fill="white" style="fill:white;fill-opacity:1;"/>
</clipPath>
</defs>
</svg>

<svg viewBox="0 0 24 24" fill="#25D366" xmlns="http://www.w3.org/2000/svg">
  <path d="M17.472 14.382c-.297-.149-1.758-.867-2.03-.967-.273-.099-.471-.148-.67.15-.197.297-.767.966-.94 1.164-.173.199-.347.223-.644.075-.297-.15-1.255-.463-2.39-1.475-.883-.788-1.48-1.761-1.653-2.059-.173-.297-.018-.458.13-.606.134-.133.298-.347.446-.52.149-.174.198-.298.298-.497.099-.198.05-.371-.025-.52-.075-.149-.669-1.612-.916-2.207-.242-.579-.487-.5-.669-.51-.173-.008-.371-.01-.57-.01-.198 0-.52.074-.792.372-.272.297-1.04 1.016-1.04 2.479 0 1.462 1.065 2.875 1.213 3.074.149.198 2.096 3.2 5.077 4.487.709.306 1.262.489 1.694.625.712.227 1.36.195 1.871.118.571-.085 1.758-.719 2.006-1.413.248-.694.248-1.289.173-1.413-.074-.124-.272-.198-.57-.347m-5.421 7.403h-.004a9.87 9.87 0 0 1-5.031-1.378l-.361-.214-3.741.982.998-3.648-.235-.374a9.86 9.86 0 0 1-1.51-5.26c.001-5.45 4.436-9.884 9.888-9.884 2.64 0 5.122 1.03 6.988 2.898a9.825 9.825 0 0 1 2.893 6.994c-.003 5.45-4.437 9.884-9.885 9.884m8.413-18.297A11.815 11.815 0 0 0 12.05 0C5.495 0 .16 5.335.157 11.892c0 2.096.547 4.142 1.588 5.945L.057 24l6.305-1.654a11.882 11.882 0 0 0 5.683 1.448h.005c6.554 0 11.89-5.335 11.893-11.893a11.821 11.821 0 0 0-3.48-8.413Z"></path>
</svg>
